X: 234
T:Nunc dimittis / Now let depart
N: Derived from Jos2008-Nunc_dimittis.krn
C: Josquin des Prez
%%abc-version 2.0
%%abcx-abcm2ps-target-version 5.9.1 (29 Sep 2008)
%%abc-creator hum2abc beta
%%abcx-conversion-date 2019/02/12 16:15:50
%%abc-edited-by Jesse Rodin
%%abc-edited-by Victoria Chang
%%abcx-initial-encoding-date 2011/03/23/
%%humdrum-veritas 630413875
%%humdrum-veritas-data 1411740851
%%linebreak <none>
%%barnumbers 0
L: 1/4
M: 2/1
Q: 1/2=120
%%staves [1 2 3 4]
V: 1 clef=treble
V: 2 clef=treble-8
V: 3 clef=treble-8
V: 4 clef=bass
K: C
[V:1] z8 | 
[V:2] z8 | 
[V:3] F6F2 | 
[V:4] z8 | 
[V:1] z8 | 
[V:2] z8 | 
[V:3] F4D4 | 
[V:4] z4F,4- | 
[V:1] z8 | 
[V:2] z8 | 
[V:3] A6A2 | 
[V:4] F,2F,2F,4 | 
[V:1] z8 | 
[V:2] z8 | 
[V:3] A4F4 | 
[V:4] D,4A,4- | 
[V:1] z8 | 
[V:2] z8 | 
[V:3] c3de2f2- | 
[V:4] A,2A,2A,4 | 
[V:1] z8 | 
[V:2] z8 | 
[V:3] f2edc2FG | 
[V:4] F,4A,4- | 
[V:1] z8 | 
[V:2] z8 | 
[V:3] ABcAB4 | 
[V:4] A,4G,4 | 
[V:1] z8 | 
[V:2] z8 | 
[V:3] A4z2D2 | 
[V:4] F,8 | 
[V:1] z8 | 
[V:2] z8 | 
[V:3] F4D2F2- | 
[V:4] z2D,2F,4 | 
[V:1] z8 | 
[V:2] z8 | 
[V:3] FGA2D2F2- | 
[V:4] D,2F,3G,A,2 | 
[V:1] z8 | 
[V:2] z8 | 
[V:3] FGABcde2- | 
[V:4] D,2F,4E,2 | 
[V:1] z8 | 
[V:2] z8 | 
[V:3] edd4^c2 | 
[V:4] G,4E,4 | 
[V:1] F6F2 | 
[V:2] z8 | 
[V:3] d8- | 
[V:4] D,8- | 
[V:1] F4D4 | 
[V:2] z4f4- | 
[V:3] d8- | 
[V:4] D,8- | 
[V:1] A6A2 | 
[V:2] f2f2f4 | 
[V:3] d8- | 
[V:4] D,8- | 
[V:1] A4F4 | 
[V:2] d4a4- | 
[V:3] d8 | 
[V:4] D,8 | 
[V:1] c3de2f2- | 
[V:2] a2a2a4 | 
[V:3] z8 | 
[V:4] z8 | 
[V:1] f2edc2FG | 
[V:2] f4a4- | 
[V:3] z8 | 
[V:4] z8 | 
[V:1] ABcAB4 | 
[V:2] a4g4 | 
[V:3] z8 | 
[V:4] z8 | 
[V:1] A4z2D2 | 
[V:2] f8 | 
[V:3] z8 | 
[V:4] z8 | 
[V:1] F4D2F2- | 
[V:2] z2d2f4 | 
[V:3] z8 | 
[V:4] z8 | 
[V:1] FGA2D2F2- | 
[V:2] d2f3ga2 | 
[V:3] z8 | 
[V:4] z8 | 
[V:1] FGABcde2- | 
[V:2] d2f4e2 | 
[V:3] z8 | 
[V:4] z8 | 
[V:1] edd4^c2 | 
[V:2] g4e4 | 
[V:3] z4A4 | 
[V:4] z8 | 
[V:1] d8 | 
[V:2] d8 | 
[V:3] B2A2d4 | 
[V:4] D,8 | 
[V:1] z8 | 
[V:2] z8 | 
[V:3] c2f4e2 | 
[V:4] E,2D,2G,4 | 
[V:1] z8 | 
[V:2] z8 | 
[V:3] d2c3BA2- | 
[V:4] F,4C4- | 
[V:1] z8 | 
[V:2] z8 | 
[V:3] A2GFG2F2 | 
[V:4] C2C2B,2A,2- | 
[V:1] z8 | 
[V:2] z8 | 
[V:3] f4e2d2- | 
[V:4] A,2G,F,G,4 | 
[V:1] A8 | 
[V:2] z8 | 
[V:3] d2cBA2D2 | 
[V:4] D,8- | 
[V:1] B2A2d4 | 
[V:2] z4d4 | 
[V:3] d8 | 
[V:4] D,8 | 
[V:1] c2F4E2 | 
[V:2] e2d2g4 | 
[V:3] z8 | 
[V:4] z8 | 
[V:1] D3EFGA2 | 
[V:2] f8 | 
[V:3] z8 | 
[V:4] z8 | 
[V:1] D2A3Bc2 | 
[V:2] z2f4e2 | 
[V:3] D3EFGA2 | 
[V:4] z8 | 
[V:1] d4B4 | 
[V:2] d2f4e2 | 
[V:3] _B3AG4 | 
[V:4] z8 | 
[V:1] A3BcAc2- | 
[V:2] f8 | 
[V:3] F4z4 | 
[V:4] z2F,4F,2 | 
[V:1] cBG2A4 | 
[V:2] z8 | 
[V:3] z2c4c2 | 
[V:4] E,4F,4 | 
[V:1] D4z4 | 
[V:2] z8 | 
[V:3] B4c4 | 
[V:4] G,3F,E,D,E,2 | 
[V:1] z8 | 
[V:2] z2f4f2 | 
[V:3] d3cBAB2 | 
[V:4] D,8 | 
[V:1] z2c4c2 | 
[V:2] e4f4 | 
[V:3] c3BAGA2 | 
[V:4] z8 | 
[V:1] B4c4 | 
[V:2] g3fede2 | 
[V:3] G4z4 | 
[V:4] z8 | 
[V:1] d2A3Bcd | 
[V:2] d2f4ed | 
[V:3] D4A4- | 
[V:4] z8 | 
[V:1] e2d4c2 | 
[V:2] c2d2e4 | 
[V:3] A2_B2A4 | 
[V:4] z8 | 
[V:1] d2A3Bcd | 
[V:2] d4z4 | 
[V:3] F2f4e2 | 
[V:4] D,4A,4- | 
[V:1] e2d4^c2 | 
[V:2] z8 | 
[V:3] c2d2e4 | 
[V:4] A,2_B,2A,4 | 
[V:1] d8- | 
[V:2] z2d3efg | 
[V:3] d4G2d2- | 
[V:4] D,4z2D,2 | 
[V:1] d8- | 
[V:2] a2g4f2 | 
[V:3] d2B2A4 | 
[V:4] F,2G,2D,4 | 
[V:1] d8 | 
[V:2] g2d3efg | 
[V:3] G3ABcd2- | 
[V:4] z4z2D,2 | 
[V:1] z4d4 | 
[V:2] a2g4^f2 | 
[V:3] d2B2A4 | 
[V:4] F,2G,2D,4 | 
[V:1] d2d3cBA | 
[V:2] g3df4 | 
[V:3] G4d3c | 
[V:4] z4z2D,2 | 
[V:1] G2A4^G2 | 
[V:2] e2d2e4 | 
[V:3] B2A2B4 | 
[V:4] E,2F,2E,4 | 
[V:1] A4c4- | 
[V:2] c4e4- | 
[V:3] A4A4- | 
[V:4] A,,4A,,4- | 
[V:1] c4B4 | 
[V:2] e4e4 | 
[V:3] A4G4 | 
[V:4] A,,4E,4 | 
[V:1] A8 | 
[V:2] c4d4 | 
[V:3] A8 | 
[V:4] F,8 | 
[V:1] G8- | 
[V:2] e8- | 
[V:3] B8 | 
[V:4] E,8- | 
[V:1] G8 | 
[V:2] e8- | 
[V:3] z2E2B4 | 
[V:4] E,8 | 
[V:1] z8 | 
[V:2] e8 | 
[V:3] c4B4 | 
[V:4] z2A,,2E,4 | 
[V:1] z8 | 
[V:2] z8 | 
[V:3] A2c3cB2 | 
[V:4] F,4E,4 | 
[V:1] z8 | 
[V:2] z8 | 
[V:3] d4c4 | 
[V:4] D,2F,3F,E,2 | 
[V:1] z8 | 
[V:2] z8 | 
[V:3] B3GABc2 | 
[V:4] G,4F,2E,2- | 
[V:1] z2E2B4 | 
[V:2] z8 | 
[V:3] B2A4^G2 | 
[V:4] E,2D,C,B,,4 | 
[V:1] c4B4 | 
[V:2] z2A2e4 | 
[V:3] A4z4 | 
[V:4] A,,4z4 | 
[V:1] A2c3cB2 | 
[V:2] f4e4 | 
[V:3] z8 | 
[V:4] z8 | 
[V:1] d4c4 | 
[V:2] d2f3fe2 | 
[V:3] z8 | 
[V:4] z8 | 
[V:1] B3GA2B2 | 
[V:2] g4f2e2- | 
[V:3] z8 | 
[V:4] z8 | 
[V:1] E3FG2A2 | 
[V:2] e2c2d2f2- | 
[V:3] z8 | 
[V:4] C4B,2A,2- | 
[V:1] E2G2F4 | 
[V:2] f2e3dd2 | 
[V:3] z8 | 
[V:4] A,2G,2A,2B,2 | 
[V:1] z8 | 
[V:2] e8- | 
[V:3] z2c2B2c2- | 
[V:4] E,3F,G,2A,2 | 
[V:1] z8 | 
[V:2] e8 | 
[V:3] c2BAB4 | 
[V:4] E,2A,4^G,2 | 
[V:1] A3Bc2d2 | 
[V:2] z2f2e2f2- | 
[V:3] A8- | 
[V:4] A,4A,2D,2- | 
[V:1] A2d4^c2 | 
[V:2] f2ede4 | 
[V:3] A8- | 
[V:4] D,2C,B,,A,,4 | 
[V:1] d8- | 
[V:2] d3efga2- | 
[V:3] A8 | 
[V:4] D,6C,2 | 
[V:1] d8 | 
[V:2] a2^g^f^g4 | 
[V:3] D8 | 
[V:4] B,,3A,,B,,4 | 
[V:1] c3BA2G2 | 
[V:2] a2ABcde2- | 
[V:3] z8 | 
[V:4] A,,4z4 | 
[V:1] F4E4 | 
[V:2] e2d2e4- | 
[V:3] d4c2A2 | 
[V:4] z4A,4 | 
[V:1] z8 | 
[V:2] e4z4 | 
[V:3] B2c2A2B2 | 
[V:4] G,2E,2F,2G,2 | 
[V:1] z8 | 
[V:2] z8 | 
[V:3] c2d4e2- | 
[V:4] E,2F,2G,4 | 
[V:1] z8 | 
[V:2] z4g4 | 
[V:3] edd4^c2 | 
[V:4] D,2F,2E,4 | 
[V:1] d4c2A2 | 
[V:2] f2d2e2f2 | 
[V:3] d4z2z2 | 
[V:4] D,4z4 | 
[V:1] B2c2A2B2 | 
[V:2] d2e2f2d2 | 
[V:3] z8 | 
[V:4] z8 | 
[V:1] c3BA2G2 | 
[V:2] e2ABcde2- | 
[V:3] z8 | 
[V:4] z8 | 
[V:1] F4E4 | 
[V:2] e2d4^c2 | 
[V:3] z8 | 
[V:4] z8 | 
[V:1] D2A2A2B2 | 
[V:2] d2f2f2f2 | 
[V:3] z2d2d2d2 | 
[V:4] z8 | 
[V:1] c4B2c2 | 
[V:2] g4g4 | 
[V:3] e4e4 | 
[V:4] z8 | 
[V:1] dcBAc2B2- | 
[V:2] f4e2f2- | 
[V:3] d4c2d2 | 
[V:4] z8 | 
[V:1] BAA4^G2 | 
[V:2] f2e2d4 | 
[V:3] A2c2B4 | 
[V:4] z8 | 
[V:1] A4z4 | 
[V:2] c2d4e2 | 
[V:3] z2A2A2B2 | 
[V:4] F,4F,2G,2 | 
[V:1] z8 | 
[V:2] f4e2f2 | 
[V:3] c4c4 | 
[V:4] A,4A,4 | 
[V:1] z8 | 
[V:2] gfedf2e2- | 
[V:3] B4A4 | 
[V:4] G,4F,2G,2 | 
[V:1] z8 | 
[V:2] edd4^c2 | 
[V:3] A2A4G2 | 
[V:4] D,2F,2E,4 | 
[V:1] z2A2A2A2 | 
[V:2] d4z2d2 | 
[V:3] A8 | 
[V:4] D,8 | 
[V:1] B4G4 | 
[V:2] d2d2e4 | 
[V:3] z8 | 
[V:4] z8 | 
[V:1] G2c4B2 | 
[V:2] c2e2d2d2 | 
[V:3] z8 | 
[V:4] z8 | 
[V:1] c4z4 | 
[V:2] c3de2f2- | 
[V:3] z2A2A2A2 | 
[V:4] z4D,4 | 
[V:1] z8 | 
[V:2] f2edg4- | 
[V:3] B4G4 | 
[V:4] D,2D,2E,4 | 
[V:1] z8 | 
[V:2] g2fef4 | 
[V:3] G2c4B2 | 
[V:4] C,2E,2D,2D,2 | 
[V:1] z2G2A2c2 | 
[V:2] e4z2c2 | 
[V:3] c8 | 
[V:4] C,2C4B,A, | 
[V:1] B4A2c2 | 
[V:2] d2e2f4- | 
[V:3] z4z2A2- | 
[V:4] G,4F,4- | 
[V:1] A2c3BA2 | 
[V:2] f2edc2f2 | 
[V:3] A2A2A2F2 | 
[V:4] F,4z4 | 
[V:1] G3FE4 | 
[V:2] e2d4^c2 | 
[V:3] G4A4 | 
[V:4] z8 | 
[V:1] D4z2c2 | 
[V:2] d4z4 | 
[V:3] D3EFGAB | 
[V:4] z4A,4- | 
[V:1] A2c3BA2 | 
[V:2] z8 | 
[V:3] c3de2f2 | 
[V:4] A,2A,2A,2F,2 | 
[V:1] G3FE4 | 
[V:2] z8 | 
[V:3] e2d4^c2 | 
[V:4] G,4A,4 | 
[V:1] D8 | 
[V:2] f6f2 | 
[V:3] d8- | 
[V:4] D,8- | 
[V:1] z4F4- | 
[V:2] f4d4 | 
[V:3] d8- | 
[V:4] D,8- | 
[V:1] F2F2F4 | 
[V:2] a6a2 | 
[V:3] d8- | 
[V:4] D,8- | 
[V:1] D4A4- | 
[V:2] a4f4 | 
[V:3] d8 | 
[V:4] D,8 | 
[V:1] A2A2A4 | 
[V:2] z2f3ec2 | 
[V:3] z8 | 
[V:4] z8 | 
[V:1] F4A4 | 
[V:2] d3cABcd | 
[V:3] z8 | 
[V:4] z8 | 
[V:1] G2F2G4 | 
[V:2] e2f4e2 | 
[V:3] z4c4- | 
[V:4] z8 | 
[V:1] F4z4 | 
[V:2] f8 | 
[V:3] c4c4 | 
[V:4] F,8 | 
[V:1] A8 | 
[V:2] z4f4- | 
[V:3] c4c4 | 
[V:4] F,4F,4 | 
[V:1] A4A4 | 
[V:2] f4f4 | 
[V:3] c4d4- | 
[V:4] F,4F,4 | 
[V:1] B6G2 | 
[V:2] d8 | 
[V:3] d2B2B4 | 
[V:4] G,6E,2 | 
[V:1] G8 | 
[V:2] e8 | 
[V:3] B4c4- | 
[V:4] E,4E,4 | 
[V:1] A8 | 
[V:2] A4f4- | 
[V:3] c2A2A4- | 
[V:4] F,8 | 
[V:1] F3GA2_B2- | 
[V:2] f2d2f4 | 
[V:3] A4d4 | 
[V:4] D,8 | 
[V:1] BAGFGFED | 
[V:2] e8 | 
[V:3] c3AB4 | 
[V:4] E,8 | 
[V:1] C3DE2F2 | 
[V:2] z4c3d | 
[V:3] A8- | 
[V:4] A,,8- | 
[V:1] E2A3GF2 | 
[V:2] e2f2e2a2- | 
[V:3] A8- | 
[V:4] A,,8- | 
[V:1] EDD4^C2 | 
[V:2] a2gfe4 | 
[V:3] A8- | 
[V:4] A,,8 | 
[V:1] D8 |]  
[V:2] d8 |]  
[V:3] A8 |]  
[V:4] D,8 |]  



